!!!!SEGMENT: pl-sa--127-a-iii-27--001_guglielmi-pietro-alessandro--symphonia-in-d-allegro-assai.krn
!!!cenid: 17xx:679
!!!COM: Guglielmi, Pietro Alessandro
!!!COM-rismid: pe30001398
!!!CDT: 1728/12/09-1804/11/19
!!!CNT: Italian
!!!OPR: Symphonia in D
!!!OTL: Allegro assai
!!!OMV: 001
!!!PDT:
!!!AGN: Secular
!!!SMS-siglum: PL-SA
!!!SMS-shelfmark: 127/A III 27
!!!SMS-shelfwork: 001-001 M
!!!SMS-variant:
!!!SMS-altvar:
!!!NIFC-rismid: 1001035048
!!!URL-scan: http://bc.bdsandomierz.pl/dlibra/publication/1484/edition/1452/content
!!!ONB-nifc: UWAGA: części Symphonii: Allegro aſsai, Andante, Allegro
!!!key:
**kern	**fba	**kern	**dynam	**kern	**dynam	**kern	**dynam	**kern	**kern	**kern
*part7	*	*part6	*part6	*part5	*part5	*part4	*part4	*part3	*part2	*part1
*staff7	*	*staff6	*	*staff5	*	*staff4	*	*staff3	*staff2	*staff1
*Iempty	*	*Ivioln	*	*Ivioln	*	*Iempty	*	*Iempty	*Ioboe	*Ioboe
*I"Baſso	*	*I"Violino 2do	*	*I"Violino 1mo	*	*I"Cornu 2do ex D.	*	*I"Cornu 1mo ex D.	*I"Oboe 2do.	*I"Oboe 1mo.
*I'b	*	*I'vl 2	*	*I'vl 1	*	*I'cor 2 in D	*	*I'cor 1 in D	*I'ob 2	*I'ob 1
*clefF4	*	*clefG2	*	*clefG2	*	*clefG2	*	*clefG2	*clefG2	*clefG2
*ITrd0c0	*	*	*	*	*	*ITrd6c10	*	*ITrd6c10	*	*
*k[f#c#]	*	*k[f#c#]	*	*k[f#c#]	*	*k[f#c#]	*	*k[f#c#]	*k[f#c#]	*k[f#c#]
*D:	*	*D:	*	*D:	*	*D:	*	*D:	*D:	*D:
*M4/4	*	*M4/4	*	*M4/4	*	*M4/4	*	*M4/4	*M4/4	*M4/4
*met(c)	*	*met(c)	*	*met(c)	*	*met(c)	*	*met(c)	*met(c)	*met(c)
=1	=1	=1	=1	=1	=1	=1	=1	=1	=1	=1
*	*	*4\right	*	*	*	*4\right	*	*	*4\right	*4\right
!LO:TX:a:t=Del Singn&colon; guglielmi Drezden.	!	!LO:TX:a:t=Del Singn&colon; guglielmi \nDrezden.	!	!LO:TX:a:t=Del Singn&colon; guglielmi \nDrezden.	!	!	!	!	!	!
!LO:TX:b:rj:t=Symphonia	!	!LO:TX:a:B:t=allegro aſsai	!	!LO:TX:a:B:t=allegro aſsai	!	!LO:TX:b:t=Symphonia	!	!	!LO:TX:b:t=Symphonia	!LO:TX:b:t=Symphonia
!LO:TX:a:B:t=Allegro aſsai.	!	!LO:TX:b:rj:t=Symphonia	!	!LO:TX:b:t=Symphonia	!	!LO:TX:a:B:t=allegro aſsai	!	!LO:TX:a:B:t=allegro aſsai	!LO:TX:a:B:t=allegro aſsai	!LO:TX:a:B:t=Allegro aſsai.
4D\	.	4d/	.	4d/	.	4d\	.	4d\	4dd\	4dd\
4D\	.	4d/	.	4d/	.	4d\	.	4d\	4dd\	4dd\
4D\	.	4d/	.	4d/	.	4d\	.	4d\	4dd\	4dd\
4r	.	8dd\L	.	8dd\L	.	4r	.	4r	8dd\L	8dd\L
.	.	8ee\J	.	8ee\J	.	.	.	.	8ee\J	8ee\J
=2	=2	=2	=2	=2	=2	=2	=2	=2	=2	=2
4r	.	4ff#\	.	4ff#\	.	4r	.	4r	4ff#\	4ff#\
4d\	.	4d/	.	4d/	.	4d\	.	4d\	4dd\	4dd\
4D/	.	4d/	.	4d/	.	4d\	.	4d\	4dd\	4dd\
4r	.	8dd\L	.	8ff#\L	.	4r	.	4r	8dd\L	8ff#\L
.	.	8dd\J	.	8gg\J	.	.	.	.	8ee\J	8gg\J
=3	=3	=3	=3	=3	=3	=3	=3	=3	=3	=3
4r	.	4ff#\	.	4aa\	.	4r	.	4r	4ff#\	4aa\
4d\	.	4d/	.	4d/	.	4d\	.	4d\	4dd\	4dd\
4D/	.	4d/	.	4d/	.	4d\	.	4d\	4dd\	4dd\
4r	.	8dd\L	.	8ff#\L	.	4r	.	4r	8dd\L	8ff#\L
.	.	8ee\J	.	8gg\J	.	.	.	.	8ee\J	8gg\J
=4	=4	=4	=4	=4	=4	=4	=4	=4	=4	=4
*	*	*	*	*	*	*	*	*^	*	*
4r	.	4ff#\	.	4aa\	.	4r	.	4r	4ryy	4ff#\	4aa\
4d\	.	4d/ 4a/ 4ff#/	.	4d/ 4a/ 4ff#/	.	4d\	.	4f#\	4f#/	4dd\	4ff#\
4G\	.	4d/ 4b/ 4gg/	.	4d/ 4b/ 4gg/	.	4e\	.	4g\	4g/	4ee\	4gg\
4A\	.	4e/ 4cc#/ 4ee/	.	4e/ 4cc#/ 4ee/	.	4A'\	.	4e\	4ryy	4cc#\	4ee\
*	*	*	*	*	*	*	*	*v	*v	*	*
=5	=5	=5	=5	=5	=5	=5	=5	=5	=5	=5
4D\	.	4d/ 4a/ 4ff#/	.	4d/ 4a/ 4ff#/	.	4d\	.	4d\	4dd\	4ff#\
4D\	.	4d/	.	4d/	.	4d\	.	4d\	4dd\	4dd\
4D\	.	4d/	.	4d/	.	4d\	.	4d\	4dd\	4dd\
4r	.	8dd\L	.	8dd\L	.	4r	.	4r	8dd\L	8dd\L
.	.	8ee\J	.	8ee\J	.	.	.	.	8ee\J	8ee\J
=6	=6	=6	=6	=6	=6	=6	=6	=6	=6	=6
4r	.	4ff#\	.	4ff#\	.	4r	.	4r	4ff#\	4ff#\
4d\	.	4d/	.	4d/	.	4d\	.	4d\	4dd\	4dd\
4D\	.	8dd\L	.	4d/	.	4d\	.	4d\	4dd\	4dd\
.	.	8ee\J	.	.	.	.	.	.	.	.
4r	.	4e/ 4cc#/ 4ee/	.	8ff#\L	.	4r	.	4r	8dd\L	8ff#\L
.	.	.	.	8gg\J	.	.	.	.	8ee\J	8gg\J
!	!	!LO:LB:g=original	!	!LO:LB:g=original	!	!	!	!	!	!
=7	=7	=7	=7	=7	=7	=7	=7	=7	=7	=7
4r	.	4ff#\	.	4aa\	.	4r	.	4r	4ff#\	4aa\
4d\	.	4d/	.	4d/	.	4d\	.	4d\	4dd\	4dd\
!	!	!	!	!	!	!	!	!	!LO:LB:g=original	!
4D\	.	4d/	.	4d/	.	4d\	.	4d\	4dd\	4dd\
4r	.	8dd\L	.	8ff#\L	.	4r	.	4r	8dd\L	8ff#\L
.	.	8ee\J	.	8gg\J	.	.	.	.	8ee\J	8gg\J
!LO:LB:g=original	!	!	!	!	!	!LO:LB:g=original	!	!LO:LB:g=original	!	!LO:LB:g=original
=8	=8	=8	=8	=8	=8	=8	=8	=8	=8	=8
4r	.	4ff#\	.	4aa\	.	4r	.	4r	4ff#\	4aa\
4d\	.	4d/ 4a/ 4ff#/	.	4d/ 4a/ 4ff#/	.	4d\	.	4f#\	4dd\	4ff#\
4G\	.	4d/ 4b/ 4gg/	.	4d/ 4b/ 4gg/	.	4e\	.	4g\	4ee\	4gg\
4A\	.	4e/ 4cc#/ 4ee/	.	4e/ 4cc#/ 4ee/	.	4A/	.	4e\	4cc#\	4ee\
=9	=9	=9	=9	=9	=9	=9	=9	=9	=9	=9
4D\	.	4d/ 4a/ 4ff#/	.	4d/ 4a/ 4ff#/	.	4d\	.	4f#\	4dd\	4ff#\
4r	.	8r	.	8r	.	4r	.	4r	8r	8r
.	.	8ff#\	.	8aa\	.	.	.	.	8a/	8a/
2r	.	8gg\L	.	8bb\L	.	2r	.	2r	8b/L	8b\L
.	.	8ff#\	.	8aa\	.	.	.	.	8a/	8a\
.	.	8gg\	.	8bb\	.	.	.	.	8b/	8b\
.	.	8ff#\J	.	8ccc#\J	.	.	.	.	8cc#/J	8cc#\J
=10	=10	=10	=10	=10	=10	=10	=10	=10	=10	=10
8F#\L	.	4d/ 4a/ 4ff#/	.	8dd\ 8ddd\	.	1D/	.	[1d/	1dd\	1dd\
8D\	.	.	.	4dd\ 4ddd\	.	.	.	.	.	.
8F#\	.	4r	.	.	.	.	.	.	.	.
8D\J	.	.	.	4dd\ 4ddd\	.	.	.	.	.	.
8F#\L	.	4d/ 4a/ 4ff#/	.	.	.	.	.	.	.	.
8D\	.	.	.	4dd\ 4ddd\	.	.	.	.	.	.
8G\	.	4d/ 4b/ 4gg/	.	.	.	.	.	.	.	.
8D\J	.	.	.	8dd\ 8ddd\	.	.	.	.	.	.
=11	=11	=11	=11	=11	=11	=11	=11	=11	=11	=11
!	!	!	!	!	!	!	!	!	!	!LO:SIC:o:s=:v:takt zapisany znakiem repetycji
8F#\L	.	4d/ 4a/ 4ff#/	.	8dd\ 8ddd\	.	1D/	.	1d/_	1dd\	1ddyy\
8D\	.	.	.	4dd\ 4ddd\	.	.	.	.	.	.
8F#\	.	4r	.	.	.	.	.	.	.	.
8D\J	.	.	.	4dd\ 4ddd\	.	.	.	.	.	.
8F#\L	.	4d/ 4a/ 4ff#/	.	.	.	.	.	.	.	.
8D\	.	.	.	4dd\ 4ddd\	.	.	.	.	.	.
8G\	.	4d/ 4b/ 4gg/	.	.	.	.	.	.	.	.
8D\J	.	.	.	8dd\ 8ddd\	.	.	.	.	.	.
=12	=12	=12	=12	=12	=12	=12	=12	=12	=12	=12
8F#\L	.	4d/ 4a/ 4ff#/	.	8dd\ 8ddd\	.	1D/	.	1d/_	1dd\	1dd\
8D\	.	.	.	4dd\ 4ddd\	.	.	.	.	.	.
8F#\	.	4r	.	.	.	.	.	.	.	.
8D\J	.	.	.	4dd\ 4ddd\	.	.	.	.	.	.
8F#\L	.	4d/ 4a/ 4ff#/	.	.	.	.	.	.	.	.
8D\	.	.	.	4dd\ 4ddd\	.	.	.	.	.	.
8G\	.	4d/ 4b/ 4gg/	.	.	.	.	.	.	.	.
8D\J	.	.	.	8dd\ 8ddd\	.	.	.	.	.	.
!	!	!	!	!LO:LB:g=original	!	!	!	!	!	!
=13	=13	=13	=13	=13	=13	=13	=13	=13	=13	=13
8F#\L	.	4d/ 4a/ 4ff#/	.	8dd\ 8ddd\	.	1D/	.	1d/]	1dd\	1dd\
8D\	.	.	.	4dd\ 4ddd\	.	.	.	.	.	.
8F#\	.	4d/ 4a/ 4ff#/	.	.	.	.	.	.	.	.
8D\J	.	.	.	4dd\ 4ddd\	.	.	.	.	.	.
8G\L	.	4d/ 4b/ 4gg/	.	.	.	.	.	.	.	.
8D\	.	.	.	4dd\ 4ddd\	.	.	.	.	.	.
8F#\	.	4d/ 4a/ 4ff#/	.	.	.	.	.	.	.	.
8D\J	.	.	.	8dd\ 8ddd\	.	.	.	.	.	.
=14	=14	=14	=14	=14	=14	=14	=14	=14	=14	=14
*	*	*^	*	*	*	*	*	*	*	*
8c#\L	.	4cc#/ 4ee/	4a\	.	8a\ 8aa\	.	1A/	.	[>1A/	1aa\	1aa\
8A\	.	.	.	.	4a\ 4aa\	.	.	.	.	.	.
8c#\	.	4r	4ryy	.	.	.	.	.	.	.	.
8A\J	.	.	.	.	4a\ 4aa\	.	.	.	.	.	.
8c#\L	.	4cc#/ 4ee/	4a\	.	.	.	.	.	.	.	.
8A\	.	.	.	.	4a\ 4aa\	.	.	.	.	.	.
8d\	.	4a/ 4ff#/	4d/	.	.	.	.	.	.	.	.
8A\J	.	.	.	.	8a\ 8aa\	.	.	.	.	.	.
!LO:LB:g=original	!	!	!	!	!	!	!	!	!	!	!
=15	=15	=15	=15	=15	=15	=15	=15	=15	=15	=15	=15
8c#\L	.	4cc#/ 4ee/	4a\	.	8a\ 8aa\	.	1A/	.	1A/_>	1aa\	1aa\
8A\	.	.	.	.	4a\ 4aa\	.	.	.	.	.	.
8c#\	.	4r	4ryy	.	.	.	.	.	.	.	.
8A\J	.	.	.	.	4a\ 4aa\	.	.	.	.	.	.
!	!	!LO:LB:g=original	!	!	!	!	!	!	!	!	!
8c#\L	.	4cc#/ 4ee/	4a\	.	.	.	.	.	.	.	.
8A\	.	.	.	.	4a\ 4aa\	.	.	.	.	.	.
8d\	.	4a/ 4ff#/	4d/	.	.	.	.	.	.	.	.
8A\J	.	.	.	.	8a\ 8aa\	.	.	.	.	.	.
=16	=16	=16	=16	=16	=16	=16	=16	=16	=16	=16	=16
8c#\L	.	4cc#/ 4ee/	4a\	.	8a\ 8aa\	.	1A/	.	1A/_>	1aa\	1aa\
8A\	.	.	.	.	4a\ 4aa\	.	.	.	.	.	.
8c#\	.	4r	4ryy	.	.	.	.	.	.	.	.
8A\J	.	.	.	.	4a\ 4aa\	.	.	.	.	.	.
8c#\L	.	4cc#/ 4ee/	4a\	.	.	.	.	.	.	.	.
8A\	.	.	.	.	4a\ 4aa\	.	.	.	.	.	.
8d\	.	4a/ 4ff#/	4d/	.	.	.	.	.	.	.	.
8A\J	.	.	.	.	8a\ 8aa\	.	.	.	.	.	.
=17	=17	=17	=17	=17	=17	=17	=17	=17	=17	=17	=17
8c#\L	.	4cc#/ 4ee/	4a\	.	8a\ 8aa\	.	1A/	.	1A/]	1aa\	1aa\
8A\	.	.	.	.	4a\ 4aa\	.	.	.	.	.	.
8c#\	.	4cc#/ 4ee/	4a\	.	.	.	.	.	.	.	.
8A\J	.	.	.	.	4a\ 4aa\	.	.	.	.	.	.
8d\L	.	4a/ 4ff#/	4d/	.	.	.	.	.	.	.	.
8A\	.	.	.	.	4a\ 4aa\	.	.	.	.	.	.
8c#\	.	4cc#/ 4ee/	4a\	.	.	.	.	.	.	.	.
8A\J	.	.	.	.	8a\ 8aa\	.	.	.	.	.	.
=18	=18	=18	=18	=18	=18	=18	=18	=18	=18	=18	=18
8G#X\L	.	4cc#/ 4ee/	4g#X\	.	8ee\	.	1e/	.	[1e/	1ee\	1ee\
8E\	.	.	.	.	4ee\|	.	.	.	.	.	.
8G#\	.	4r	4ryy	.	.	.	.	.	.	.	.
8E\J	.	.	.	.	4ee\|	.	.	.	.	.	.
8G#\L	.	4b/ 4ee/	4g#\	.	.	.	.	.	.	.	.
8E\	.	.	.	.	4ee\|	.	.	.	.	.	.
8A\	.	4cc#/ 4ee/	4a\	.	.	.	.	.	.	.	.
8E\J	.	.	.	.	8ee\	.	.	.	.	.	.
!	!	!	!	!	!LO:LB:g=original	!	!	!	!	!	!
=19	=19	=19	=19	=19	=19	=19	=19	=19	=19	=19	=19
*	*	*	*	*	*^	*	*	*	*	*	*
8G#X\L	.	4cc#/ 4ee/	4g#X\	.	8ee\	8ee/	.	1e/	.	1e/_	1ee\	1ee\
8E\	.	.	.	.	4ee/	4ee\	.	.	.	.	.	.
8G#\	.	4r	4ryy	.	.	.	.	.	.	.	.	.
8E\J	.	.	.	.	4ee/	4ee\	.	.	.	.	.	.
8G#\L	.	4b/ 4ee/	4g#\	.	.	.	.	.	.	.	.	.
8E\	.	.	.	.	4ee\	8ryy	.	.	.	.	.	.
8A\	.	4cc#/ 4ee/	4a\	.	.	4ryy	.	.	.	.	.	.
8E\J	.	.	.	.	8ee\	.	.	.	.	.	.	.
*	*	*	*	*	*v	*v	*	*	*	*	*	*
=20	=20	=20	=20	=20	=20	=20	=20	=20	=20	=20	=20
8G#X\L	.	4cc#/ 4ee/	4g#X\	.	8ee\	.	1e/	.	1e/]	1ee\	1ee\
8E\	.	.	.	.	4ee\	.	.	.	.	.	.
8G#\	.	4r	4ryy	.	.	.	.	.	.	.	.
8E\J	.	.	.	.	4ee\	.	.	.	.	.	.
8G#\L	.	4b/ 4ee/	4g#\	.	.	.	.	.	.	.	.
8E\	.	.	.	.	4ee\	.	.	.	.	.	.
8A\	.	4cc#/ 4ee/	4a\	.	.	.	.	.	.	.	.
8E\J	.	.	.	.	8ee\	.	.	.	.	.	.
!	!	!	!	!	!	!	!	!	!	!LO:LB:g=original	!
=21	=21	=21	=21	=21	=21	=21	=21	=21	=21	=21	=21
!LO:SIC:o:s=:v:tak powtórzony znakiem repetycji	!	!	!	!	!	!	!	!	!	!	!
8G#X\Lyy	.	4b/ 4ee/	4g#X\	.	8ee\	.	1e/	.	1e/	1ee\	1ee\
8E\yy	.	.	.	.	4ee\	.	.	.	.	.	.
8G#\yy	.	4b/ 4ee/	4g#\	.	.	.	.	.	.	.	.
8E\Jyy	.	.	.	.	4ee\	.	.	.	.	.	.
8G#\Lyy	.	4cc#/ 4ee/	4a\	.	.	.	.	.	.	.	.
8E\yy	.	.	.	.	4ee\	.	.	.	.	.	.
8A\yy	.	4b/ 4ee/	4g#\	.	.	.	.	.	.	.	.
8E\Jyy	.	.	.	.	8ee\	.	.	.	.	.	.
!LO:LB:g=original	!	!	!	!	!	!	!	!	!	!	!
=22	=22	=22	=22	=22	=22	=22	=22	=22	=22	=22	=22
*	*	*	*	*	*^	*	*	*	*	*	*
!LO:TX:a:t=P:problem=mixed beam	!	!	!	!	!	!	!	!	!	!	!	!
8AA/L	.	4cc#/ 4ee/	4a\	.	8ccc#/	8a\	.	1A/	.	1e/	1cc#\	1aa\
8A\	.	.	.	.	4aa/	4a\	.	.	.	.	.	.
8G#X\	.	4cc#/ 4ee/	4a\	.	.	.	.	.	.	.	.	.
8F#\J	.	.	.	.	4aa/	4a\	.	.	.	.	.	.
8E\L	.	4cc#/ 4ee/	4a\	.	.	.	.	.	.	.	.	.
8D\	.	.	.	.	4aa/	4a\	.	.	.	.	.	.
8C#\	.	4cc#/ 4ee/	4a\	.	.	.	.	.	.	.	.	.
8BB\J	.	.	.	.	8aa/	8a\	.	.	.	.	.	.
=23	=23	=23	=23	=23	=23	=23	=23	=23	=23	=23	=23	=23
!LO:TX:a:t=P:problem=mixed beam	!	!	!	!	!	!	!	!	!	!	!	!
8AA/L	.	4cc#/ 4ee/	4a\	.	8ccc#/	8a\	.	1A/	.	1e/	1cc#\	1aa\
8A\	.	.	.	.	4aa/	4a\	.	.	.	.	.	.
8G#X\	.	4cc#/ 4ee/	4a\	.	.	.	.	.	.	.	.	.
8F#\J	.	.	.	.	4aa/	4a\	.	.	.	.	.	.
8E\L	.	4cc#/ 4ee/	4a\	.	.	.	.	.	.	.	.	.
8D\	.	.	.	.	4aa/	4a\	.	.	.	.	.	.
8C#\	.	4cc#/ 4ee/	4a\	.	.	.	.	.	.	.	.	.
8BB\J	.	.	.	.	8aa/	8a\	.	.	.	.	.	.
!	!	!LO:LB:g=original	!	!	!	!	!	!	!	!LO:LB:g=original	!	!LO:LB:g=original
=24	=24	=24	=24	=24	=24	=24	=24	=24	=24	=24	=24	=24
4AA/	.	4cc#/ 4ee/	4a\	.	4aa/	4a\	.	4A/	.	4e\	4cc#\	4aa\
*	*	*	*	*	*	*	*	*	*	*	*	*2\right
4C#/	.	4cc#/ 4ee/	4a\	.	4cc#/ 4ee/	4a\	.	4A/	.	4e\	4cc#\	2aa\
*	*	*	*	*	*	*	*	*	*	*	*2\right	*
4D\	.	4ff#/	4d/ 4a/	.	4ff#/	4d/ 4a/	.	4d\	.	4f#\	2b\	.
4E\	.	4b/ 4ee/	4g#X\	.	4b/ 4ee/	4g#X\	.	4e\	.	4e\	.	4gg#X\
!	!	!	!	!	!	!	!	!LO:LB:g=original	!	!	!	!
=25	=25	=25	=25	=25	=25	=25	=25	=25	=25	=25	=25	=25
4A\	.	4cc#/ 4ee/	4a\	.	4cc#/ 4ee/	4a\	.	4A/	.	4e\	4a/	4aa\
4C#/	.	4cc#/ 4ee/	4a\	.	4cc#/ 4ee/	4a\	.	4A/	.	4e\	4cc#\	2aa\
4D\	.	4ff#/	4d/ 4a/	.	4ff#/	4d/ 4a/	.	4d\	.	4f#\	2b\	.
4E\	.	4b/ 4ee/	4g#X\	.	4b/ 4ee/	4g#X\	.	4e\	.	4e\	.	4gg#X\
!	!	!	!	!	!	!LO:LB:g=original	!	!	!	!	!	!
=26	=26	=26	=26	=26	=26	=26	=26	=26	=26	=26	=26	=26
4A\	.	4cc#/ 4ee/	4e/	.	4cc#/ 4ee/	4a\	.	1A/	.	1e/	4cc#\	4aa\
4A\	.	8ee/L	4e/ 4cc#/	.	8aa/L	4a\	.	.	.	.	8ee\L	8aa\L
.	.	8aa/J	.	.	8ccc#/J	.	.	.	.	.	8aa\J	8ccc#\J
4A\	.	8ee/L	4e/ 4cc#/	.	8aa/L	4a\	.	.	.	.	8ee\L	8aa\L
.	.	8aa/J	.	.	8ccc#/J	.	.	.	.	.	8aa\	8ccc#\
4A\	.	8ee/L	4e/ 4cc#/	.	8aa/L	4a\	.	.	.	.	8ee\	8aa\
.	.	8aa/J	.	.	8ccc#/J	.	.	.	.	.	8aa\J	8ccc#\J
=27	=27	=27	=27	=27	=27	=27	=27	=27	=27	=27	=27	=27
4A\	.	4ee/	4e/ 4cc#/	.	4aa/	4a\	.	4A/	.	4e\	4ee\	4aa\
4E\	.	4ee/	4e/ 4cc#/	.	4aa/	4a\	.	4A/	.	4e\	4ee\	4aa\
4C#/	.	4ee/	4e/ 4cc#/	.	4aa/	4a\	.	4A/	.	4e\	4ee\	4aa\
4E\	.	4ee/	4e/ 4cc#/	.	4aa/	4a\	.	4A/	.	4e\	4ee\	4aa\
=28	=28	=28	=28	=28	=28	=28	=28	=28	=28	=28	=28	=28
4AA/	.	4ee/	4e/ 4cc#/	.	4aa/	4a\	.	4A/	.	4e\	4ee\	4aa\
*	*	*v	*v	*	*	*	*	*	*	*	*	*
*	*	*	*	*v	*v	*	*	*	*	*	*
!LO:SIC:o:s=:v:niezrozumiałe oznaczenie "es put" ?	!	!	!	!	!	!	!	!	!	!
4r	.	4r	.	4r	.	4r	.	4r	4r	4r
2r	.	2r	.	2r	.	2r	.	2r	2r	2r
!LO:LB:g=original	!	!	!	!	!	!	!	!	!	!
=29	=29	=29	=29	=29	=29	=29	=29	=29	=29	=29
!	!	!	!	!	!	!LO:TX:a:t=15	!	!LO:TX:a:t=15	!LO:TX:a:t=23	!
.	.	.	.	16qqbb/	.	.	.	.	.	.
*	*	*	*	*32\right	*	*	*	*	*	*
4D\	n	8d/L	.	(32aa\LLL	.	00r	.	00r	00r	00r
.	.	.	.	32gg\JJ	.	.	.	.	.	.
.	.	.	.	8.aa\J)	.	.	.	.	.	.
.	.	8fn/	.	.	.	.	.	.	.	.
4r	.	8d/	.	4r	.	.	.	.	.	.
.	.	8f/J	.	.	.	.	.	.	.	.
2r	.	8d/L	.	2r	.	.	.	.	.	.
.	.	8f/	.	.	.	.	.	.	.	.
.	.	8d/	.	.	.	.	.	.	.	.
.	.	8f/J	.	.	.	.	.	.	.	.
=30	=30	=30	=30	=30	=30	=30	=30	=30	=30	=30
.	.	.	.	16qqccc#/	.	.	.	.	.	.
00r	.	8g/L	.	(32bb-X\LLL	.	.	.	.	.	.
.	.	.	.	32aa\JJ	.	.	.	.	.	.
.	.	.	.	8.bb-\J)	.	.	.	.	.	.
.	.	8b-X/	.	.	.	.	.	.	.	.
.	.	8g/	.	4r	.	.	.	.	.	.
.	.	8b-/J	.	.	.	.	.	.	.	.
.	.	8g/L	.	2r	.	.	.	.	.	.
.	.	8b-/	.	.	.	.	.	.	.	.
.	.	8g/	.	.	.	.	.	.	.	.
.	.	8b-/J	.	.	.	.	.	.	.	.
!	!	!LO:LB:g=original	!	!	!	!	!	!	!	!
=31	=31	=31	=31	=31	=31	=31	=31	=31	=31	=31
.	.	.	.	16qqff#/	.	.	.	.	.	.
.	.	8c#X/L	.	(32ee\LLL	.	.	.	.	.	.
.	.	.	.	32dd\JJ	.	.	.	.	.	.
.	.	.	.	8.ee\J)	.	.	.	.	.	.
.	.	8e/	.	.	.	.	.	.	.	.
.	.	8c#/	.	4r	.	.	.	.	.	.
.	.	8e/J	.	.	.	.	.	.	.	.
.	.	8c#/L	.	2r	.	.	.	.	.	.
.	.	8e/	.	.	.	.	.	.	.	.
.	.	8c#/	.	.	.	.	.	.	.	.
.	.	8e/J	.	.	.	.	.	.	.	.
!	!	!	!	!LO:LB:g=original	!	!	!	!	!	!
=32	=32	=32	=32	=32	=32	=32	=32	=32	=32	=32
.	.	.	.	16qqgg/	.	.	.	.	.	.
.	.	8d/L	.	(32ffn\LLL	.	.	.	.	.	.
.	.	.	.	32ee\JJ	.	.	.	.	.	.
.	.	.	.	8.ff\J)	.	.	.	.	.	.
.	.	8fn/	.	.	.	.	.	.	.	.
.	.	8d/	.	4r	.	.	.	.	.	.
.	.	8f/J	.	.	.	.	.	.	.	.
.	.	8d/L	.	2r	.	.	.	.	.	.
.	.	8f/	.	.	.	.	.	.	.	.
.	.	8d/	.	.	.	.	.	.	.	.
.	.	8f/J	.	.	.	.	.	.	.	.
=33	=33	=33	=33	=33	=33	=33	=33	=33	=33	=33
.	.	.	.	16qqbb/	.	.	.	.	.	.
.	.	8d/L	.	32aa\LLL	.	00r	.	00r	00r	00r
.	.	.	.	32gg\JJ	.	.	.	.	.	.
.	.	.	.	8.aa\J	.	.	.	.	.	.
.	.	8fn/	.	.	.	.	.	.	.	.
.	.	8d/	.	4r	.	.	.	.	.	.
.	.	8f/J	.	.	.	.	.	.	.	.
.	.	8d/L	.	32ffn\LLL	.	.	.	.	.	.
.	.	.	.	32ee\JJ	.	.	.	.	.	.
.	.	.	.	8.ff\J	.	.	.	.	.	.
.	.	8f/	.	.	.	.	.	.	.	.
.	.	8d/	.	4r	.	.	.	.	.	.
.	.	8f/J	.	.	.	.	.	.	.	.
=34	=34	=34	=34	=34	=34	=34	=34	=34	=34	=34
.	.	.	.	8qqaa/	.	.	.	.	.	.
00r	.	8e/L	.	(32gg\LLL	.	.	.	.	.	.
.	.	.	.	32ff#\JJ	.	.	.	.	.	.
.	.	.	.	8.gg\J)	.	.	.	.	.	.
.	.	8g/	.	.	.	.	.	.	.	.
.	.	8e/	.	4r	.	.	.	.	.	.
.	.	8g/J	.	.	.	.	.	.	.	.
.	.	.	.	16qqdd/	.	.	.	.	.	.
.	.	8e/L	.	(32ccn\LLL	.	.	.	.	.	.
.	.	.	.	32b\JJ	.	.	.	.	.	.
.	.	.	.	8.cc\J)	.	.	.	.	.	.
.	.	8g/	.	.	.	.	.	.	.	.
.	.	8e/	.	4r	.	.	.	.	.	.
.	.	8g/J	.	.	.	.	.	.	.	.
=35	=35	=35	=35	=35	=35	=35	=35	=35	=35	=35
.	.	8e/L	.	(32cccn\LLL	.	.	.	.	.	.
.	.	.	.	32bb\JJ	.	.	.	.	.	.
.	.	.	.	8.ccc\J)	.	.	.	.	.	.
.	.	8g/	.	.	.	.	.	.	.	.
.	.	8e/	.	4r	.	.	.	.	.	.
.	.	8g/J	.	.	.	.	.	.	.	.
.	.	8e/L	.	(32gg\LLL	.	.	.	.	.	.
.	.	.	.	32ffn\JJ	.	.	.	.	.	.
.	.	.	.	8.gg\J)	.	.	.	.	.	.
.	.	8g/	.	.	.	.	.	.	.	.
.	.	8e/	.	4r	.	.	.	.	.	.
.	.	8g/J	.	.	.	.	.	.	.	.
!	!	!	!	!LO:LB:g=original	!	!	!	!	!	!
=36	=36	=36	=36	=36	=36	=36	=36	=36	=36	=36
.	.	8fn/L	.	(32aa\LLL	.	.	.	.	.	.
.	.	.	.	32gg\JJ	.	.	.	.	.	.
.	.	.	.	8.aa\J)	.	.	.	.	.	.
.	.	8a/	.	.	.	.	.	.	.	.
.	.	8f/	.	4r	.	.	.	.	.	.
.	.	8a/J	.	.	.	.	.	.	.	.
.	.	8f/L	.	2r	.	.	.	.	.	.
.	.	8a/	.	.	.	.	.	.	.	.
.	.	8f/	.	.	.	.	.	.	.	.
.	.	8a/J	.	.	.	.	.	.	.	.
=37	=37	=37	=37	=37	=37	=37	=37	=37	=37	=37
.	.	8b-X\L	.	(32ddd\LLL	.	00r	.	00r	00r	00r
.	.	.	.	32ccc#\JJ	.	.	.	.	.	.
.	.	.	.	8.ddd\J)	.	.	.	.	.	.
.	.	8dd\	.	.	.	.	.	.	.	.
.	.	8b-\	.	4r	.	.	.	.	.	.
.	.	8dd\J	.	.	.	.	.	.	.	.
.	.	8b-\L	.	2r	.	.	.	.	.	.
.	.	8dd\	.	.	.	.	.	.	.	.
.	.	8b-\	.	.	.	.	.	.	.	.
.	.	8dd\J	.	.	.	.	.	.	.	.
!	!	!LO:LB:g=original	!	!	!	!	!	!	!	!
=38	=38	=38	=38	=38	=38	=38	=38	=38	=38	=38
00r	.	8e/L	.	32gg\LLL	.	.	.	.	.	.
.	.	.	.	32ff#\JJ	.	.	.	.	.	.
.	.	.	.	8.gg\J	.	.	.	.	.	.
.	.	8g/	.	.	.	.	.	.	.	.
.	.	8e/	.	4r	.	.	.	.	.	.
.	.	8g/J	.	.	.	.	.	.	.	.
.	.	8e/L	.	2r	.	.	.	.	.	.
.	.	8g/	.	.	.	.	.	.	.	.
.	.	8e/	.	.	.	.	.	.	.	.
.	.	8g/J	.	.	.	.	.	.	.	.
=39	=39	=39	=39	=39	=39	=39	=39	=39	=39	=39
.	.	8fn/L	.	(32aa\LLL	.	.	.	.	.	.
.	.	.	.	32gg\JJ	.	.	.	.	.	.
.	.	.	.	8.aa\J)	.	.	.	.	.	.
.	.	8a/	.	.	.	.	.	.	.	.
.	.	8f/	.	4r	.	.	.	.	.	.
.	.	8a/J	.	.	.	.	.	.	.	.
.	.	8f/L	.	2r	.	.	.	.	.	.
.	.	8a/	.	.	.	.	.	.	.	.
.	.	8f/	.	.	.	.	.	.	.	.
.	.	8a/J	.	.	.	.	.	.	.	.
=40	=40	=40	=40	=40	=40	=40	=40	=40	=40	=40
.	.	8f#/L	.	(32cccn\LLL	.	.	.	.	.	.
.	.	.	.	32bb\JJ	.	.	.	.	.	.
.	.	.	.	8.ccc\J)	.	.	.	.	.	.
.	.	8a/	.	.	.	.	.	.	.	.
.	.	8f#/	.	4r	.	.	.	.	.	.
.	.	8a/J	.	.	.	.	.	.	.	.
.	.	8f#/L	.	(32ffn\LLL	.	.	.	.	.	.
.	.	.	.	32ee\JJ	.	.	.	.	.	.
.	.	.	.	8.ff\J)	.	.	.	.	.	.
.	.	8a/	.	.	.	.	.	.	.	.
.	.	8f#/	.	4r	.	.	.	.	.	.
.	.	8a/J	.	.	.	.	.	.	.	.
=41	=41	=41	=41	=41	=41	=41	=41	=41	=41	=41
!	!	!	!	!	!	!LO:SIC:o:s=:v:błędnie wpisane pauzy	!	!LO:SIC:o:s=:v:błędnie wpisane pauzy	!	!
!	!	!	!	!	!	!LO:N:vis=00	!	!LO:N:vis=00	!	!
.	.	8b-X\L	.	(32ddd\LLL	.	0r	.	0r	00r	00r
.	.	.	.	32ccc#\JJ	.	.	.	.	.	.
.	.	.	.	8.ddd\J)	.	.	.	.	.	.
.	.	8dd\	.	.	.	.	.	.	.	.
.	.	8b-\	.	4r	.	.	.	.	.	.
.	.	8dd\J	.	.	.	.	.	.	.	.
.	.	8a\L	.	32cccn\LLL	.	.	.	.	.	.
.	.	.	.	32bb\JJ	.	.	.	.	.	.
.	.	.	.	8.ccc\J	.	.	.	.	.	.
.	.	8ccn\	.	.	.	.	.	.	.	.
.	.	8a\	.	4r	.	.	.	.	.	.
.	.	8cc\J	.	.	.	.	.	.	.	.
!	!	!	!	!LO:LB:g=original	!	!	!	!	!	!
=42	=42	=42	=42	=42	=42	=42	=42	=42	=42	=42
0r	.	8g/L	.	(32bb-X\LLL	.	.	.	.	.	.
.	.	.	.	32aa\JJ	.	.	.	.	.	.
.	.	.	.	8.bb-\J)	.	.	.	.	.	.
.	.	8b-X/	.	.	.	.	.	.	.	.
.	.	8g/	.	4r	.	.	.	.	.	.
.	.	8b-/J	.	.	.	.	.	.	.	.
.	.	8fn/L	.	(32aa\LLL	.	.	.	.	.	.
.	.	.	.	32gg\JJ	.	.	.	.	.	.
.	.	.	.	8.aa\J)	.	.	.	.	.	.
.	.	8a/	.	.	.	.	.	.	.	.
.	.	8f/	.	4r	.	.	.	.	.	.
.	.	8a/J	.	.	.	.	.	.	.	.
=43	=43	=43	=43	=43	=43	=43	=43	=43	=43	=43
.	.	8e/L	.	(32gg\LLL	.	1r	.	1r	.	.
.	.	.	.	32ff#\JJ	.	.	.	.	.	.
.	.	.	.	8.gg\J)	.	.	.	.	.	.
.	.	8g/	.	.	.	.	.	.	.	.
.	.	8e/	.	4r	.	.	.	.	.	.
.	.	8g/J	.	.	.	.	.	.	.	.
.	.	8d/L	.	(32ffn\LLL	.	.	.	.	.	.
.	.	.	.	32ee\JJ	.	.	.	.	.	.
.	.	.	.	8.ff\J)	.	.	.	.	.	.
.	.	8fn/	.	.	.	.	.	.	.	.
.	.	8d/	.	4r	.	.	.	.	.	.
.	.	8f/J	.	.	.	.	.	.	.	.
=44	=44	=44	=44	=44	=44	=44	=44	=44	=44	=44
!LO:TX:a:t=P:problem=mixed beam	!	!	!	!	!	!	!LO:DY:a:Po	!	!	!
8AA/L	.	4A/	.	4ee\	.	1A/	p	1A/	.	.
8A\	.	.	.	.	.	.	.	.	.	.
8AA/	.	4r	.	4r	.	.	.	.	.	.
8A\J	.	.	.	.	.	.	.	.	.	.
!LO:TX:a:t=P:problem=mixed beam	!	!	!	!	!	!	!	!	!	!
8AA/L	.	2r	.	2r	.	.	.	.	.	.
8A\	.	.	.	.	.	.	.	.	.	.
8AA/	.	.	.	.	.	.	.	.	.	.
8A\J	.	.	.	.	.	.	.	.	.	.
!	!	!LO:LB:g=original	!	!	!	!	!	!	!	!
=45	=45	=45	=45	=45	=45	=45	=45	=45	=45	=45
!LO:TX:a:t=P:problem=mixed beam	!	!	!LO:DY:a:t=for.	!	!LO:DY:a	!	!	!	!	!
8AA/L	.	(4b-X/	f	4b-X/	f	2A/	.	2A/	00r	00r
8A\	.	.	.	.	.	.	.	.	.	.
8AA/	.	4a/)	.	4a/	.	.	.	.	.	.
8A\J	.	.	.	.	.	.	.	.	.	.
!LO:TX:a:t=P:problem=mixed beam	!	!	!	!	!LO:DY:a	!	!	!	!	!
8AA/L	.	8a/	.	8cc#X\	p	2A/	.	2A/	.	.
8A\	.	8r	.	8r	.	.	.	.	.	.
8AA/	.	8bn\	.	8dd\	.	.	.	.	.	.
8A\J	.	8r	.	8r	.	.	.	.	.	.
=46	=46	=46	=46	=46	=46	=46	=46	=46	=46	=46
!LO:TX:a:t=P:problem=mixed beam	!	!	!	!	!	!	!	!	!	!
8AA/L	.	4cc#X\	.	4ee\	.	1A/	.	1A/	.	.
8A\	.	.	.	.	.	.	.	.	.	.
8AA/	.	4r	.	4r	.	.	.	.	.	.
8A\J	.	.	.	.	.	.	.	.	.	.
!LO:TX:a:t=P:problem=mixed beam	!	!	!	!	!	!	!	!	!	!
8AA/L	.	2r	.	2r	.	.	.	.	.	.
8A\	.	.	.	.	.	.	.	.	.	.
8AA/	.	.	.	.	.	.	.	.	.	.
8A\J	.	.	.	.	.	.	.	.	.	.
=47	=47	=47	=47	=47	=47	=47	=47	=47	=47	=47
!LO:TX:a:t=P:problem=mixed beam	!	!	!	!	!LO:DY:a:t=for.	!	!	!	!	!
8AA/L	.	(4b-X\	.	(4b-X/	f	1A/	.	1A/	.	.
8A\	.	.	.	.	.	.	.	.	.	.
8AA/	.	4a\)	.	4a/)	.	.	.	.	.	.
8A\J	.	.	.	.	.	.	.	.	.	.
!LO:TX:a:t=P:problem=mixed beam	!	!	!	!	!	!	!	!	!	!
8AA/L	.	8cc#X\	.	8ee\	.	.	.	.	.	.
8A\	.	8r	.	8r	.	.	.	.	.	.
8AA/	.	8dd\	.	8ffn\	.	.	.	.	.	.
8A\J	.	8r	.	8r	.	.	.	.	.	.
!	!	!	!	!LO:LB:g=original	!	!	!	!	!	!
=48	=48	=48	=48	=48	=48	=48	=48	=48	=48	=48
!LO:TX:a:t=P:problem=mixed beam	!	!	!	!	!	!	!	!	!	!
8AA/L	.	4ee\	.	4gg\	.	1A/	.	1A/	.	.
8A\	.	.	.	.	.	.	.	.	.	.
8AA/	.	4r	.	4r	.	.	.	.	.	.
8A\J	.	.	.	.	.	.	.	.	.	.
!LO:TX:a:t=P:problem=mixed beam	!	!	!	!	!	!	!	!	!	!
8AA/L	.	2r	.	2r	.	.	.	.	.	.
8A\	.	.	.	.	.	.	.	.	.	.
8AA/	.	.	.	.	.	.	.	.	.	.
8A\J	.	.	.	.	.	.	.	.	.	.
!LO:LB:g=original	!	!	!	!	!	!	!	!	!	!
=49	=49	=49	=49	=49	=49	=49	=49	=49	=49	=49
!LO:TX:a:t=P:problem=mixed beam	!	!	!	!	!LO:DY:a:t=fir.	!	!	!	!LO:SIC:o:s=:v:błędnie wpisane pauzy	!
!	!	!	!	!	!	!	!	!	!LO:N:vis=00	!
8AA/L	.	(4b-X\	.	(4b-X/	f	1A/	.	1A/	1r	0r
8A\	.	.	.	.	.	.	.	.	.	.
8AA/	.	4a\)	.	4a/)	.	.	.	.	.	.
8A\J	.	.	.	.	.	.	.	.	.	.
!LO:TX:a:t=P:problem=mixed beam	!	!	!	!	!LO:DY:a	!	!	!	!	!
8AA/L	.	8ee\	.	8gg\	p	.	.	.	.	.
8A\	.	8r	.	8r	.	.	.	.	.	.
8AA/	.	8ffn\	.	8aa\	.	.	.	.	.	.
8A\J	.	8r	.	8r	.	.	.	.	.	.
=50	=50	=50	=50	=50	=50	=50	=50	=50	=50	=50
!LO:TX:a:t=P:problem=mixed beam	!	!	!	!	!	!	!	!	!	!
!	!	!	!	!	!	!	!	!	!LO:N:vis=00	!
8AA/L	.	4gg\	.	4bb-X\	.	1A/	.	1A/	1r	.
8A\	.	.	.	.	.	.	.	.	.	.
8AA/	.	4r	.	4r	.	.	.	.	.	.
8A\J	.	.	.	.	.	.	.	.	.	.
!LO:TX:a:t=P:problem=mixed beam	!	!	!	!	!	!	!	!	!	!
8AA/L	.	8gg\	.	8bb-\	.	.	.	.	.	.
8A\	.	8r	.	8r	.	.	.	.	.	.
8AA/	.	8ee\	.	8gg\	.	.	.	.	.	.
8A\J	.	8r	.	8r	.	.	.	.	.	.
!	!	!LO:LB:g=original	!	!	!	!	!	!	!	!
=51	=51	=51	=51	=51	=51	=51	=51	=51	=51	=51
!LO:TX:a:t=P:problem=mixed beam	!	!	!	!	!	!	!	!	!	!
!	!	!	!	!	!	!	!	!	!LO:N:vis=00	!
8AA/L	.	8ffn\	.	8aa\	.	1A/	.	1A/	1r	1r
8A\	.	8r	.	8r	.	.	.	.	.	.
8AA/	.	8dd\	.	8ffn\	.	.	.	.	.	.
8A\J	.	8r	.	8r	.	.	.	.	.	.
!LO:TX:a:t=P:problem=mixed beam	!	!	!	!	!	!	!	!	!	!
8AA/L	.	8ee\	.	8gg\	.	.	.	.	.	.
8A\	.	8r	.	8r	.	.	.	.	.	.
8AA/	.	8cc#X\	.	8ee\	.	.	.	.	.	.
8A\J	.	8r	.	8r	.	.	.	.	.	.
=52	=52	=52	=52	=52	=52	=52	=52	=52	=52	=52
!	!	!	!	!	!LO:DY:a:t=for.	!	!	!	!	!
4D\	.	4d/	.	4d/	f	4d\	.	4d\	4dd\	4dd\
4D\	.	4d/	.	4d/	.	4d\	.	4d\	4dd\	4dd\
4D\	.	4d/	.	4d/	.	4d\	.	4d\	4dd\	4dd\
4r	.	8dd\L	.	8dd\L	.	4r	.	4r	8dd\L	8dd\L
.	.	8ee\J	.	8ee\J	.	.	.	.	8ee\J	8ee\J
!	!	!	!	!	!	!LO:LB:g=original	!	!LO:LB:g=original	!LO:LB:g=original	!LO:LB:g=original
=53	=53	=53	=53	=53	=53	=53	=53	=53	=53	=53
4r	.	4ff#\	.	4ff#\	.	4r	.	4r	4ff#\	4ff#\
4D\	.	4d/	.	4d/	.	4d\	.	4d\	4dd\	4dd\
!	!	!	!	!LO:LB:g=original	!	!	!	!	!	!
4D\	.	4d/	.	4d/	.	4d\	.	4d\	4dd\	4dd\
4r	.	8dd\L	.	8ff#\L	.	4r	.	4r	8dd\L	8ff#\L
.	.	8ee\J	.	8gg\J	.	.	.	.	8ee\J	8gg\J
=54	=54	=54	=54	=54	=54	=54	=54	=54	=54	=54
4r	.	4ff#\	.	4aa\	.	4r	.	4r	4ff#\	4aa\
4D\	.	4d/	.	4d/	.	4d\	.	4d\	4dd\	4dd\
4D\	.	4d/	.	4d/	.	4d\	.	4d\	4dd\	4dd\
4r	.	8dd\L	.	8ff#\L	.	4r	.	4r	8dd\L	8ff#\L
.	.	8ee\J	.	8gg\J	.	.	.	.	8ee\J	8gg\J
=55	=55	=55	=55	=55	=55	=55	=55	=55	=55	=55
*	*	*^	*	*^	*	*	*	*	*	*
4r	.	4ff#\	4ryy	.	4aa\	4ryy	.	4r	.	4r	4ff#\	4aa\
4d\	.	4d/ 4a/ 4ff#/	4ryy	.	4d/ 4a/ 4ff#/	4ryy	.	4d\	.	4f#\	4dd\	4ff#\
4G\	.	4d/ 4b/ 4gg/	4ryy	.	4d/ 4b/ 4gg/	4ryy	.	4e\	.	4g\	4ee\	4gg\
4A\	.	4cc#/ 4ee/	4a\	.	4cc#/ 4ee/	4a\	.	4A/	.	4e\	4cc#\	4ee\
*	*	*v	*v	*	*	*	*	*	*	*	*	*
*	*	*	*	*v	*v	*	*	*	*	*	*
=56	=56	=56	=56	=56	=56	=56	=56	=56	=56	=56
4D\	.	4d/ 4a/ 4ff#/	.	4d/ 4a/ 4ff#/	.	4d\	.	4d\	4dd\	4ff#\
4D\	.	4d/	.	4d/	.	4d\	.	4d\	4dd\	4dd\
4D\	.	4d/	.	4d/	.	4d\	.	4d\	4dd\	4dd\
4r	.	8dd\L	.	8dd\L	.	4r	.	4r	8dd\L	8dd\L
.	.	8ee\J	.	8ee\J	.	.	.	.	8ee\J	8ee\J
=57	=57	=57	=57	=57	=57	=57	=57	=57	=57	=57
4r	.	4ff#\	.	4ff#\	.	4r	.	4r	4ff#\	4ff#\
4D\	.	4d/	.	4d/	.	4d\	.	4d\	4dd\	4dd\
4D\	.	4d/	.	4d/	.	4d\	.	4d\	4dd\	4dd\
4r	.	8ff#\L	.	8ff#\L	.	4r	.	4r	8dd\L	8ff#\L
.	.	8gg\J	.	8gg\J	.	.	.	.	8ee\J	8gg\J
!	!	!LO:LB:g=original	!	!	!	!	!	!	!	!
=58	=58	=58	=58	=58	=58	=58	=58	=58	=58	=58
4r	.	4aa\	.	4aa\	.	4r	.	4r	4ff#\	4aa\
4D\	.	4d/	.	4d/	.	4d\	.	4d\	4dd\	4dd\
4D\	.	4d/	.	4d/	.	4d\	.	4d\	4dd\	4dd\
4r	.	8ff#\L	.	8ff#\L	.	4r	.	4r	8dd\L	8ff#\L
.	.	8gg\J	.	8gg\J	.	.	.	.	8ee\J	8gg\J
=59	=59	=59	=59	=59	=59	=59	=59	=59	=59	=59
*	*	*	*	*^	*	*	*	*	*	*
4r	.	4ff#\	.	4aa/	4aa\	.	4r	.	4r	4ff#\	4aa\
*	*	*^	*	*	*	*	*	*	*	*	*
4d\	.	4ff#/	4d/ 4a/	.	4ff#/	4d/ 4a/	.	4d\	.	4f#\	4dd\	4ff#\
4G\	.	4gg/	4d/ 4b/	.	4gg/	4d/	.	4e\	.	4g\	4ee\	4gg\
4A\	.	4cc#/ 4ee/	4a\	.	4cc#/ 4ee/	4a\	.	4A/	.	4e\	4cc#\	4ee\
*	*	*v	*v	*	*	*	*	*	*	*	*	*
*	*	*	*	*v	*v	*	*	*	*	*	*
!	!	!	!	!LO:LB:g=original	!	!	!	!	!LO:LB:g=original	!
=60	=60	=60	=60	=60	=60	=60	=60	=60	=60	=60
4D\	.	4d/ 4a/ 4ff#/	.	4d/ 4a/ 4ff#/	.	4F#/	.	4d\	4dd\	4ff#\
4r	.	8r	.	8r	.	4r	.	4r	8r	8r
.	.	8aa\	.	8aa\	.	.	.	.	8a/	8a/
!	!	!	!	!	!	!	!	!	!	!LO:LB:g=original
2r	.	8bb\L	.	8bb\L	.	2r	.	2r	8b/L	8b/L
.	.	8aa\	.	8aa\	.	.	.	.	8a/	8a/
.	.	8bb\	.	8bb\	.	.	.	.	8b/	8b/
.	.	8ccc#\J	.	8ccc#\J	.	.	.	.	8cc#/J	8cc#/J
!	!	!	!	!	!	!LO:LB:g=original	!	!	!	!
=61	=61	=61	=61	=61	=61	=61	=61	=61	=61	=61
8F#\L	.	4d/ 4a/ 4ff#/	.	8dd\ 8ddd\	.	1D/	.	1d/	1dd\	1dd\
8D\	.	.	.	4dd\ 4ddd\	.	.	.	.	.	.
8F#\	.	4r	.	.	.	.	.	.	.	.
8D\J	.	.	.	4dd\ 4ddd\	.	.	.	.	.	.
8F#\L	.	4d/ 4a/ 4ff#/	.	.	.	.	.	.	.	.
8D\	.	.	.	4dd\ 4ddd\	.	.	.	.	.	.
8G\	.	4d/ 4b/ 4gg/	.	.	.	.	.	.	.	.
8D\J	.	.	.	8dd\ 8ddd\	.	.	.	.	.	.
!LO:LB:g=original	!	!	!	!	!	!	!	!	!	!
=62	=62	=62	=62	=62	=62	=62	=62	=62	=62	=62
8F#\L	.	4d/ 4a/ 4ff#/	.	8dd\ 8ddd\	.	1D/	.	1d/	1dd\	1dd\
8D\	.	.	.	4dd\ 4ddd\	.	.	.	.	.	.
8F#\	.	4r	.	.	.	.	.	.	.	.
8D\J	.	.	.	4dd\ 4ddd\	.	.	.	.	.	.
8F#\L	.	4d/ 4a/ 4ff#/	.	.	.	.	.	.	.	.
8D\	.	.	.	4dd\ 4ddd\	.	.	.	.	.	.
8G\	.	4d/ 4b/ 4gg/	.	.	.	.	.	.	.	.
8D\J	.	.	.	8dd\ 8ddd\	.	.	.	.	.	.
!	!	!	!	!	!	!	!	!LO:LB:g=original	!	!
=63	=63	=63	=63	=63	=63	=63	=63	=63	=63	=63
8F#\L	.	4d/ 4a/ 4ff#/	.	8dd\ 8ddd\	.	1D/	.	1d/	1dd\	1dd\
8D\	.	.	.	4dd\ 4ddd\	.	.	.	.	.	.
8F#\	.	4r	.	.	.	.	.	.	.	.
8D\J	.	.	.	4dd\ 4ddd\	.	.	.	.	.	.
8F#\L	.	4d/ 4a/ 4ff#/	.	.	.	.	.	.	.	.
8D\	.	.	.	4dd\ 4ddd\	.	.	.	.	.	.
8G\	.	4d/ 4b/ 4gg/	.	.	.	.	.	.	.	.
8D\J	.	.	.	8dd\ 8ddd\	.	.	.	.	.	.
=64	=64	=64	=64	=64	=64	=64	=64	=64	=64	=64
8F#\L	.	4d/ 4a/ 4ff#/	.	8dd\ 8ddd\	.	1D/	.	1d/	1dd\	1dd\
8D\	.	.	.	4dd\ 4ddd\	.	.	.	.	.	.
8F#\	.	4d/ 4a/ 4ff#/	.	.	.	.	.	.	.	.
8D\J	.	.	.	4dd\ 4ddd\	.	.	.	.	.	.
8G\L	.	4d/ 4b/ 4gg/	.	.	.	.	.	.	.	.
8D\	.	.	.	4dd\ 4ddd\	.	.	.	.	.	.
8F#\	.	4d/ 4a/ 4ff#/	.	.	.	.	.	.	.	.
8D\J	.	.	.	8dd\ 8ddd\	.	.	.	.	.	.
=65	=65	=65	=65	=65	=65	=65	=65	=65	=65	=65
4G\	.	8d/ 8b/ 8aa/	.	8ddd\L	.	4D/	.	4d\	8dd\L	8dd\L
.	.	8bb\L	.	8bb\	.	.	.	.	8bb\	8bb\
4r	.	8aa\	.	8aa\	.	4r	.	4r	8aa\	8aa\
.	.	8gg\J	.	8gg\J	.	.	.	.	8gg\J	8gg\J
2r	.	8ff#\L	.	8ff#\L	.	2r	.	2r	8ff#\L	8ff#\L
.	.	8gg\	.	8gg\	.	.	.	.	8gg\	8gg\
.	.	8aa\	.	8aa\	.	.	.	.	8aa\	8aa\
!	!	!	!	!LO:TX:a:t=g	!	!	!	!	!	!
.	.	8gg\J	.	8gg\J	.	.	.	.	8ff#\J	8gg\J
!	!	!LO:LB:g=original	!	!LO:LB:g=original	!	!	!	!	!	!
=66	=66	=66	=66	=66	=66	=66	=66	=66	=66	=66
*	*	*^	*	*	*	*	*	*	*	*
8D#X/L	.	4b/ 4gg/	4d/	.	8b\ 8bb\	.	4f#\	.	4f#\	1bb\	1bb\
8BB/	.	.	.	.	4b\ 4bb\	.	.	.	.	.	.
8D#/	.	4r	4ryy	.	.	.	4r	.	4r	.	.
8BB/J	.	.	.	.	4b\ 4bb\	.	.	.	.	.	.
8D#/L	.	4b/ 4ff#/	4f#\	.	.	.	4f#\	.	4f#\|	.	.
8BB/	.	.	.	.	4b\ 4bb\	.	.	.	.	.	.
8E/	.	4b/ 4gg/	4e\	.	.	.	4g\	.	4g\	.	.
8BB/J	.	.	.	.	8b\ 8bb\	.	.	.	.	.	.
=67	=67	=67	=67	=67	=67	=67	=67	=67	=67	=67	=67
8D#X/L	.	4b/ 4ff#/	4f#/	.	8b\ 8bb\	.	4f#\	.	4f#\	1bb\	1bb\
8BB/	.	.	.	.	4b\ 4bb\	.	.	.	.	.	.
8D#/	.	4r	4ryy	.	.	.	4r	.	4r	.	.
8BB/J	.	.	.	.	4b\ 4bb\	.	.	.	.	.	.
8D#/L	.	4b/ 4ff#/	4f#/	.	.	.	4f#\	.	4f#\	.	.
8BB/	.	.	.	.	4b\ 4bb\	.	.	.	.	.	.
8E/	.	4b/ 4gg/	4e/	.	.	.	4g\	.	4g\	.	.
8BB/J	.	.	.	.	8b\ 8bb\	.	.	.	.	.	.
=68	=68	=68	=68	=68	=68	=68	=68	=68	=68	=68	=68
8D#X/L	.	4b/ 4ff#/	4f#/	.	8b\ 8bb\	.	4f#\	.	4f#\	1bb\	1bb\
8BB/	.	.	.	.	4b\ 4bb\	.	.	.	.	.	.
8D#/	.	4r	4ryy	.	.	.	4r	.	4r	.	.
8BB/J	.	.	.	.	4b\ 4bb\	.	.	.	.	.	.
!LO:LB:g=original	!	!	!	!	!	!	!	!	!	!	!
8D#/L	.	4b/ 4ff#/	4f#/	.	.	.	4f#\	.	4f#\|	.	.
8BB/	.	.	.	.	4b\ 4bb\	.	.	.	.	.	.
8E/	.	4b/ 4gg/	4e/	.	.	.	4g\	.	4g\|	.	.
8BB/J	.	.	.	.	8b\ 8bb\	.	.	.	.	.	.
*	*	*v	*v	*	*	*	*	*	*	*	*
=69	=69	=69	=69	=69	=69	=69	=69	=69	=69	=69
8D#X/L	.	4e/ 4b/ 4ff#/	.	8b\ 8bb\	.	4f#\	.	4f#\	1bb\	1bb\
8BB/	.	.	.	4b\ 4bb\	.	.	.	.	.	.
8D#/	.	4e/ 4b/ 4ff#/	.	.	.	4r	.	4r	.	.
8BB/J	.	.	.	4b\ 4bb\	.	.	.	.	.	.
8E/L	.	4e/ 4b/ 4gg/	.	.	.	4e\	.	4g\	.	.
8BB/	.	.	.	4b\ 4bb\	.	.	.	.	.	.
8D#/	.	4f#/ 4b/ 4ff#/	.	.	.	4f#\	.	4f#\	.	.
8BB/J	.	.	.	8b\ 8bb\	.	.	.	.	.	.
=70	=70	=70	=70	=70	=70	=70	=70	=70	=70	=70
*	*	*	*	*^	*	*	*	*	*	*
4E\	.	8gg\L	.	8bb/L	4b/	.	4e\	.	4g\	8bb\L	8bb\L
.	.	8bb\	.	8bb/	.	.	.	.	.	8bb\	8bb\
4r	.	8aa\	.	8aa/	4ryy	.	4r	.	4r	8aa\	8aa\
.	.	8gg\J	.	8gg/J	.	.	.	.	.	8gg\J	8gg\J
2r	.	8ff#\L	.	8ff#\L	2ryy	.	2r	.	2r	8ff#\L	8ff#\L
.	.	8ee\	.	8ee\	.	.	.	.	.	8ee\	8ee\
.	.	8dd#X\	.	8dd#X\	.	.	.	.	.	8dd#X\	8dd#X\
.	.	8ee\J	.	8ee\J	.	.	.	.	.	8ee\J	8ee\J
!	!	!	!	!LO:LB:g=original	!	!	!	!	!	!	!
=71	=71	=71	=71	=71	=71	=71	=71	=71	=71	=71	=71
8c#\L	.	4e/ 4a/ 4cc#/ 4ee/	.	8aa/	8a\	.	1A/	.	1A/	1aa\	1aa\
8A\	.	.	.	4aa/	4a\	.	.	.	.	.	.
8c#\	.	4r	.	.	.	.	.	.	.	.	.
8A\J	.	.	.	4aa/	4a\	.	.	.	.	.	.
8c#\L	.	4e/ 4cc#/ 4ee/	.	.	.	.	.	.	.	.	.
8A\	.	.	.	4aa/	4a\	.	.	.	.	.	.
8d\	.	4d/ 4a/ 4ff#/	.	.	.	.	.	.	.	.	.
8A\J	.	.	.	8aa/	8a\	.	.	.	.	.	.
!	!	!	!	!	!	!	!LO:LB:g=original	!	!	!	!
=72	=72	=72	=72	=72	=72	=72	=72	=72	=72	=72	=72
8c#\L	.	4e/ 4cc#/ 4ee/	.	8aa/	8a\	.	1A/	.	1A/	1aa\	1aa\
8A\	.	.	.	4aa/	4a\	.	.	.	.	.	.
8c#\	.	4r	.	.	.	.	.	.	.	.	.
8A\J	.	.	.	4aa/	4a\	.	.	.	.	.	.
8c#\L	.	4e/ 4cc#/ 4ee/	.	.	.	.	.	.	.	.	.
8A\	.	.	.	4aa/	4a\	.	.	.	.	.	.
8d\	.	4d/ 4a/ 4ff#/	.	.	.	.	.	.	.	.	.
8A\J	.	.	.	8aa/	8a\	.	.	.	.	.	.
!	!	!	!	!	!	!	!	!	!	!LO:LB:g=original	!LO:LB:g=original
=73	=73	=73	=73	=73	=73	=73	=73	=73	=73	=73	=73
8c#\L	.	4e/ 4cc#/ 4ee/	.	8aa/	8a\	.	1A/	.	1A/	1aa\	1aa\
8A\	.	.	.	4aa/	4a\	.	.	.	.	.	.
8c#\	.	4r	.	.	.	.	.	.	.	.	.
8A\J	.	.	.	4aa/	4a\	.	.	.	.	.	.
!	!	!LO:LB:g=original	!	!	!	!	!	!	!	!	!
8c#\L	.	4e/ 4g/ 4cc#/ 4ee/	.	.	.	.	.	.	.	.	.
8A\	.	.	.	4aa/	4a\	.	.	.	.	.	.
8d\	.	4d/ 4a/ 4ff#/	.	.	.	.	.	.	.	.	.
8A\J	.	.	.	8aa/	8a\	.	.	.	.	.	.
=74	=74	=74	=74	=74	=74	=74	=74	=74	=74	=74	=74
8c#\L	.	4e/ 4cc#/ 4ee/	.	8aa/	8a\	.	1A/	.	1A/	1aa\	1aa\
8A\	.	.	.	4aa/	4a\	.	.	.	.	.	.
8c#\	.	4e/ 4cc#/ 4ee/	.	.	.	.	.	.	.	.	.
8A\J	.	.	.	4aa/	4a\	.	.	.	.	.	.
8d\L	.	4d/ 4a/ 4ff#/	.	.	.	.	.	.	.	.	.
8A\	.	.	.	4aa/	4a\	.	.	.	.	.	.
8c#\	.	4e/ 4cc#/ 4ee/	.	.	.	.	.	.	.	.	.
8A\J	.	.	.	8aa/	8a\	.	.	.	.	.	.
!LO:LB:g=original	!	!	!	!	!	!	!	!	!	!	!
=75	=75	=75	=75	=75	=75	=75	=75	=75	=75	=75	=75
4d\	.	4d/ 4a/ 4ff#/	.	4aa/	4a\	.	4d\	.	4f#\	4aa\	4aa\
4G\	.	4d/ 4b/ 4gg/	.	(32gg\LLL	4ryy	.	4e\	.	4g\	4ee\	4gg\
.	.	.	.	32aa\JJ	.	.	.	.	.	.	.
.	.	.	.	8.bb\J)	.	.	.	.	.	.	.
4A\	.	4d/ 4a/ 4ff#/	.	4a/	4ryy	.	4d\	.	4f#\	4dd\	4ff#\
4AA/	.	4e/ 4cc#/ 4ee/	.	4cc#/ 4ee/	4a\	.	4A/	.	4e\	4cc#\	4ee\
*	*	*	*	*v	*v	*	*	*	*	*	*
!	!	!	!	!	!	!	!	!LO:LB:g=original	!	!
=76	=76	=76	=76	=76	=76	=76	=76	=76	=76	=76
4D\	.	4d/ 4a/ 4ff#/	.	4d/ 4a/ 4ff#/	.	4F#/	.	4d\	4dd\	4dd\
!	!	!	!LO:DY:a	!	!	!	!	!	!	!
4D\	.	4ff#\|	p	4aa\|	.	4r	.	4r	4r	4r
4G\	.	4gg\|	.	4bb\|	.	2r	.	2r	2r	2r
4D\	.	4ee\|	.	4gg\|	.	.	.	.	.	.
!	!	!	!	!LO:LB:g=original	!	!	!	!	!	!
=77	=77	=77	=77	=77	=77	=77	=77	=77	=77	=77
!	!	!	!	!	!	!	!	!LO:TX:a:t=1	!	!
4F#\	.	4ff#\|	.	4aa\|	.	1r	.	1r	1r	1r
4BB/	.	4dd\|	.	4ff#\|	.	.	.	.	.	.
4E\	.	4ee\|	.	4gg\|	.	.	.	.	.	.
4AA/	.	4cc#\|	.	4ee\|	.	.	.	.	.	.
=78	=78	=78	=78	=78	=78	=78	=78	=78	=78	=78
!	!	!	!LO:DY:t=for.	!	!	!	!	!	!	!
4D\	.	[2d/	f	[2d/	f	1d/	.	1d/	1dd\	1dd\
8E\L	.	.	.	.	.	.	.	.	.	.
8F#\J	.	.	.	.	.	.	.	.	.	.
8G\L	.	2d/]	.	2d/]	.	.	.	.	.	.
8A\	.	.	.	.	.	.	.	.	.	.
8B\	.	.	.	.	.	.	.	.	.	.
8c#\J	.	.	.	.	.	.	.	.	.	.
=79	=79	=79	=79	=79	=79	=79	=79	=79	=79	=79
!	!	!	!LO:DY:a	!	!LO:DY:a	!	!	!	!	!
4d\	.	4d/	p	4d/	p	8d\	.	8d\	4dd\	4dd\
.	.	.	.	.	.	8r	.	8r	.	.
4D\ 4d\	.	4ff#\|	.	4aa\|	.	4r	.	4r	4r	4r
4G\	.	4gg\|	.	4bb\|	.	2r	.	2r	2r	2r
4D\	.	4ee\|	.	4gg\|	.	.	.	.	.	.
=80	=80	=80	=80	=80	=80	=80	=80	=80	=80	=80
4F#\	.	4ff#\|	.	4aa\|	.	1r	.	1r	1r	1r
4BB/	.	4dd\|	.	4ff#\|	.	.	.	.	.	.
4E\	.	4ee\|	.	4gg\|	.	.	.	.	.	.
4AA/	.	4cc#\|	.	4ee\|	.	.	.	.	.	.
!LO:LB:g=original	!	!	!	!	!	!	!	!	!	!
=81	=81	=81	=81	=81	=81	=81	=81	=81	=81	=81
!	!	!	!	!	!LO:DY:rj	!	!	!	!	!
4D\	.	[2d/	f	[2d/	f	1d/	.	1d/	1dd\	1dd\
8E\L	.	.	.	.	.	.	.	.	.	.
8F#\J	.	.	.	.	.	.	.	.	.	.
8G\L	.	2d/]	.	2d/]	.	.	.	.	.	.
8A\	.	.	.	.	.	.	.	.	.	.
8B\	.	.	.	.	.	.	.	.	.	.
8c#\J	.	.	.	.	.	.	.	.	.	.
=82	=82	=82	=82	=82	=82	=82	=82	=82	=82	=82
4d\	.	4d/	.	4d/	.	1d/	.	1d/	1dd\	1dd\
8c#\L	.	8e/L	.	8e/L	.	.	.	.	.	.
8B\J	.	8f#/J	.	8f#/J	.	.	.	.	.	.
8A\L	.	8g/L	.	8g/L	.	.	.	.	.	.
8G\	.	8a/	.	8a/	.	.	.	.	.	.
8F#\	.	8b/	.	8b/	.	.	.	.	.	.
8E\J	.	8cc#/J	.	8cc#/J	.	.	.	.	.	.
!	!	!LO:LB:g=original	!	!	!	!	!	!	!	!
=83	=83	=83	=83	=83	=83	=83	=83	=83	=83	=83
8D\L	.	8dd\L	.	8dd\L	.	1d/	.	1d/	1dd\	1dd\
8E\	.	8ee\	.	8ee\	.	.	.	.	.	.
8F#\	.	8ff#\	.	8ff#\	.	.	.	.	.	.
8G\J	.	8gg\J	.	8gg\J	.	.	.	.	.	.
8A\L	.	8aa\L	.	8aa\L	.	.	.	.	.	.
8B\	.	8bb\	.	8bb\	.	.	.	.	.	.
8c#\	.	8ccc#\	.	8ccc#\	.	.	.	.	.	.
8d\J	.	8ddd\J	.	8ddd\J	.	.	.	.	.	.
=84	=84	=84	=84	=84	=84	=84	=84	=84	=84	=84
*	*	*^	*	*^	*	*	*	*	*	*
!	!	!	!	!	!	!	!LO:DY:a:t=Po:	!	!	!	!	!
4G\	.	4G/	4ryy	.	4G/	4ryy	p	4d\	.	4d\	4dd\	4dd\
4G\	.	(32gg\LLL	4ryy	.	(32gg\LLL	4ryy	.	4r	.	4r	4ee\	4gg\
.	.	32aa\JJ	.	.	32aa\JJ	.	.	.	.	.	.	.
.	.	8.bb\J)	.	.	8.bb\J)	.	.	.	.	.	.	.
!	!	!	!	!	!LO:LB:g=original	!	!	!	!	!	!	!
4A\	.	4a/	4ryy	.	4a/	4ryy	.	4d\	.	4f#\	4dd\	4ff#\
4AA/	.	4ee/	4e\ 4cc#\	.	4ee/	4e\ 4cc#\	.	4A/	.	4e\	4cc#\	4ee\
!	!	!	!	!	!	!	!	!LO:LB:g=original	!	!	!	!
=85	=85	=85	=85	=85	=85	=85	=85	=85	=85	=85	=85	=85
4D\	.	4a/ 4ff#/	4d/	.	4a/ 4ff#/	4d/	.	4d\	.	4f#\	4dd\	4ff#\
8F#\L	.	4a/ 4ff#/	4d/	.	4a/ 4ff#/	4d/	.	4d\	.	4f#\	4dd\	4ff#\
8D\J	.	.	.	.	.	.	.	.	.	.	.	.
8G\L	.	4b/ 4gg/	4d/	.	4b/ 4gg/	4d/	.	4e\	.	4g\	4ee\	4gg\
8E\	.	.	.	.	.	.	.	.	.	.	.	.
8A\	.	4a/ 4cc#/ 4ee/	4e/	.	4a/ 4cc#/ 4ee/	4e\	.	4A/	.	4e\	4cc#\	4ee\
8G\J	.	.	.	.	.	.	.	.	.	.	.	.
!	!	!	!	!	!	!	!	!	!	!	!LO:LB:g=original	!LO:LB:g=original
=86	=86	=86	=86	=86	=86	=86	=86	=86	=86	=86	=86	=86
8F#\L	.	4aa/	4a\	.	4aa/	4a\	.	4f#\	.	4a\	4dd\	4aa\
8D\	.	.	.	.	.	.	.	.	.	.	.	.
8F#\	.	4ff#/	4d/ 4a/	.	4ff#/	4d/ 4a/	.	4d\	.	4f#\	4dd\	4ff#\
8D\J	.	.	.	.	.	.	.	.	.	.	.	.
8G\L	.	4gg/	4d/ 4b/	.	4gg/	4d/ 4b/	.	4e\	.	4g\	4ee\	4gg\
8E\	.	.	.	.	.	.	.	.	.	.	.	.
!LO:TX:a:t=P:problem=mixed beam	!	!	!	!	!	!	!	!	!	!	!	!
8A\	.	4ee/	4a\ 4cc#\	.	4ee/	4a\ 4cc#\	.	4A/	.	4e\	4cc#\	4ee\
8AA/J	.	.	.	.	.	.	.	.	.	.	.	.
=87	=87	=87	=87	=87	=87	=87	=87	=87	=87	=87	=87	=87
4D\	.	4a/ 4ff#/	4d/	.	4a/ 4ff#/	4d/	.	4d\	.	4f#\	4dd\	4ff#\
8F#\L	.	4a/ 4ff#/	4d/	.	4a/ 4ff#/	4d/	.	4d\	.	4f#\	4dd\	4ff#\
8D\J	.	.	.	.	.	.	.	.	.	.	.	.
!LO:LB:g=original	!	!	!	!	!	!	!	!	!	!	!	!
8G\L	.	4b/ 4gg/	4d/	.	4b/ 4gg/	4d/	.	4e\	.	4g\	4ee\	4gg\
8E\	.	.	.	.	.	.	.	.	.	.	.	.
8A\	.	4cc#/ 4ee/	4a\	.	4cc#/ 4ee/	4a\	.	4A/	.	4e\	4cc#\	4ee\
8G\J	.	.	.	.	.	.	.	.	.	.	.	.
=88	=88	=88	=88	=88	=88	=88	=88	=88	=88	=88	=88	=88
8F#\L	.	4aa/	4a\	.	4aa/	4a\	.	4f#\	.	4a\	4dd\	4aa\
8D\	.	.	.	.	.	.	.	.	.	.	.	.
8F#\	.	4ff#/	4d/ 4a/	.	4ff#/	4d/ 4a/	.	4d\	.	4f#\	4dd\	4ff#\
8D\J	.	.	.	.	.	.	.	.	.	.	.	.
8G\L	.	4gg/	4d/ 4b/	.	4gg/	4d/ 4b/	.	4e\	.	4g\	4ee\	4gg\
8E\	.	.	.	.	.	.	.	.	.	.	.	.
!LO:TX:a:t=P:problem=mixed beam	!	!	!	!	!	!	!	!	!	!	!	!
8A\	.	4cc#/ 4ee/	4a\	.	4ee/	4a\ 4cc#\	.	4A/	.	4e\	4cc#\	4ee\
8AA/J	.	.	.	.	.	.	.	.	.	.	.	.
!	!	!	!	!	!	!	!	!LO:LB:g=original	!	!	!	!
=89	=89	=89	=89	=89	=89	=89	=89	=89	=89	=89	=89	=89
!LO:TX:a:t=P:problem=mixed beam	!	!	!	!	!	!	!	!	!LO:LB:g=original	!	!	!
8D/L	.	4ff#/	4d/ 4a/	.	4ff#/	4d/ 4a/	.	4d\	.	4f#\	4dd\	4ff#\
8d\	.	.	.	.	.	.	.	.	.	.	.	.
8c#\	.	8ff#/L	4d/ 4a/	.	8ff#/L	4d/ 4a/	.	8d\L	.	8f#\L	8dd\L	8ff#\L
8B\J	.	8aa/J	.	.	8aa/J	.	.	8f#\J	.	8a\J	8ff#\J	8aa\J
8A\L	.	8ff#/L	4d/ 4a/	.	8ff#/L	4d/ 4a/	.	8d\L	.	8f#\L	8dd\L	8ff#\L
8G\	.	8aa/J	.	.	8aa/J	.	.	8f#\	.	8a\J	8ff#\	8aa\J
8F#\	.	8ff#/L	4d/ 4a/	.	8ff#/L	4d/ 4a/	.	8d\	.	8f#\L	8dd\	8ff#\L
8E\J	.	8aa/J	.	.	8aa/J	.	.	8f#\J	.	8a\J	8ff#\J	8aa\J
!	!	!LO:LB;g=original	!	!	!LO:PB:g=original	!	!	!	!	!	!	!
=90	=90	=90	=90	=90	=90	=90	=90	=90	=90	=90	=90	=90
8D\L	.	4ff#/	4d/ 4a/	.	4ff#/	4d/ 4a/	.	4d\	.	4f#\	4dd\	4ff#\
8d\	.	.	.	.	.	.	.	.	.	.	.	.
8c#\	.	8aa/L	4a\	.	8aa/L	4a\	.	4d\	.	4f#\	4ff#\	4aa\
8B\J	.	8ddd/J	.	.	8ddd/J	.	.	.	.	.	.	.
8A\L	.	8aa/L	4a\	.	8aa/L	4a\	.	4d\	.	4f#\	4ff#\	4aa\
8G\	.	8ddd/J	.	.	8ddd/J	.	.	.	.	.	.	.
8F#\	.	8aa/L	4a\	.	8aa/L	4a\	.	4d\	.	4f#\	4ff#\	4aa\
8E\J	.	8ddd/J	.	.	8ddd/J	.	.	.	.	.	.	.
=91	=91	=91	=91	=91	=91	=91	=91	=91	=91	=91	=91	=91
8D\L	.	4aa/	4a\	.	4aa/	4a\	.	4d\	.	4f#\	4ff#\	4aa\
8d\	.	.	.	.	.	.	.	.	.	.	.	.
8c#\	.	8ff#/L	4d/ 4a/	.	8ff#/L	4d/ 4a/	.	8d\L	.	8f#\L	8dd\L	8ff#\L
8B\J	.	8aa/J	.	.	8aa/J	.	.	8f#\J	.	8a\J	8ff#\J	8aa\J
8A\L	.	8ff#/L	4d/ 4a/	.	8ff#/L	4d/ 4a/	.	8d\L	.	8f#\L	8dd\L	8ff#\L
8G\	.	8aa/J	.	.	8aa/J	.	.	8f#\	.	8a\	8ff#\	8aa\
8F#\	.	8ff#/L	4d/ 4a/	.	8ff#/L	4d/ 4a/	.	8d\	.	8f#\	8dd\	8ff#\
8E\J	.	8aa/J	.	.	8aa/J	.	.	8f#\J	.	8a\J	8ff#\J	8aa\J
*	*	*v	*v	*	*	*	*	*	*	*	*	*
*	*	*	*	*v	*v	*	*	*	*	*	*
=92	=92	=92	=92	=92	=92	=92	=92	=92	=92	=92
4D\	.	4d/ 4a/ 4ff#/	.	4d/ 4a/ 4ff#/	.	4d\	.	4f#\	4dd\	4ff#\
4D\	.	4d/ 4a/ 4ff#/	.	4d/ 4a/ 4ff#/	.	4d\	.	4f#\	4ff#\	4aa\
4D\	.	4d/ 4a/ 4ff#/	.	4d/ 4a/ 4ff#/	.	4d\	.	4f#\	4ff#\	4aa\
4D\	.	4d/ 4a/ 4ff#/	.	4d/ 4a/ 4ff#/	.	4d\	.	4f#\	4ff#\	4aa\
=93	=93	=93	=93	=93	=93	=93	=93	=93	=93	=93
4D\	.	4d/ 4a/ 4ff#/	.	4d/ 4a/ 4ff#/	.	4d\	.	4f#\	4ff#\	4aa\
4r	.	4r	.	4r	.	4r	.	4r	4r	4r
2r	.	2r	.	2r	.	2r	.	2r	2r	2r
!	!	!	!	!	!	!	!	!LO:TX:t=Tacet	!LO:TX:t=Andante Tacet	!
=||	=||	=||	=||	=||	=||	=||	=||	=||	=||	=||
*-	*-	*-	*-	*-	*-	*-	*-	*-	*-	*-
!!!system-decoration: s1,s2,s3,s4,s5,s6,s7
!!!RDF**kern: > = above
!!!RDF**kern: < = below
!!!EED: Leszek Kubiak
!!!EST: 2020-07-22
!!!AIN: 3 empty 2 oboe 2 violn
!!!ENC: Tomasz Grochalski
!!!END: 2020-05-30
!!!RDF**kern: | = vertical stroke
